X: 30051
T: Off To The Hunt
R: jig
M: 6/8
K: Adorian
|:A2A AB/c/d|ege dBA|~G3 BGB|dBG BdB|
A2A AB/c/d|ede g2g|age dBd|1 ecA A2G:|2 ecA A3||
|:aga ~A3|aga ~A3|gfg ~G3|B/c/dB GAB|
c2c d^cd|~e3 g2g|age dBd|1 ecA A3:|2 ecA A2G||

